X:5669
T:Gan Ainm
R:reel
S:Seamus Egan
H:
N:
D:Solo Album #1 
Z:Adrian Scahill
M:4/4
L:1/8
K:G
E|DEGA B3d|egg2 edd2|ed (3Bcd g3d|egdB ABGE|\
DEGA B3d|egg2 edd2|egdB ABGE|DEGA BGG2:||\
dgg2 eaa2|dgg2 ed (3Bcd|e3d g3d|egdB ABge|\
dgg2 eaa2|dgg2 ed (3Bcd|egdB ABGE|DEGA BGG2:||
